src/Assets/Images/HomeScreen/TestimonialsComponent/Intersect.svg

<svg width="100" height="100" viewBox="0 0 100 100" fill="none" xmlns="http://www.w3.org/2000/svg">
<path d="M100 49.9997C100 61.8909 95.8487 72.813 88.9162 81.3953C79.7507 92.7429 65.7233 100 50.0003 100C34.2772 100 20.364 92.802 11.1962 81.5341C4.19598 72.9311 0 61.9551 0 49.9997C0 22.3855 22.386 0 50.0003 0C77.6145 0 100 22.3855 100 49.9997Z" fill="#FFFAFA"/>
<path d="M88.9163 81.3954C79.7508 92.743 65.7234 100 50.0004 100C34.2774 100 20.3641 92.8021 11.1963 81.5342C12.3415 80.869 14.4736 79.7209 18.2171 77.9593C24.8256 74.8494 27.5461 74.2662 29.4901 73.1004C31.4342 71.934 35.2402 65.8117 35.629 65.6821C36.0178 65.5525 36.2931 65.7148 36.3579 65.4551C36.4227 65.1958 35.0297 63.2197 34.1231 60.1425C33.2159 57.0648 33.1832 54.1493 32.5358 52.9835C31.8878 51.8171 30.5269 50.7809 29.8468 48.1246C29.1667 45.4684 29.3823 41.894 29.8795 41.8292C30.3761 41.7644 30.4197 42.5632 30.6789 42.4554C30.9381 42.347 30.3331 39.0646 29.8795 38.1149C29.4259 37.1647 28.4057 34.3571 28.4545 30.6158C28.5026 26.874 28.5193 25.5786 29.2642 24.1856C30.0091 22.7927 33.1511 19.5533 33.1838 19.2941C33.2165 19.0349 29.6203 20.2655 29.2642 19.7803C28.9081 19.2941 36.4232 12.9774 41.1525 11.7468C45.8824 10.5156 50.4821 10.062 56.1186 12.006C61.7551 13.9494 62.3704 16.2496 62.5648 16.8001C62.7592 17.3506 62.6623 17.3179 63.2776 17.3827C63.893 17.4475 69.1086 18.1276 71.0847 20.9141C73.0608 23.6999 73.0069 24.6605 72.8555 24.7253C72.7041 24.7901 70.8255 22.4148 70.3507 22.674C69.8753 22.9332 71.8302 22.1447 72.024 28.9476C72.2184 35.75 69.4974 41.9049 69.9183 42.3585C70.3392 42.8121 70.8582 41.6136 71.0199 41.808C71.1822 42.0024 71.5383 45.3388 70.7607 47.9302C69.9831 50.5217 69.0117 51.785 68.331 52.1417C67.6508 52.4978 67.2293 57.0654 66.9059 58.6527C66.5819 60.24 64.1201 65.326 64.3793 65.5525C64.6385 65.7791 65.3192 65.0662 67.4891 68.5976C69.6597 72.1284 71.376 73.3269 72.4776 73.6836C73.5792 74.0397 84.8626 79.3631 86.2882 80.0329C87.1415 80.4337 88.1571 80.9269 88.9181 81.3954H88.9163Z" fill="#D1D1DC"/>
</svg>

<svg xmlns="http://www.w3.org/2000/svg" width="100" height="100" fill="none"><path fill="snow" d="M100 50a49.8 49.8 0 0 1-11.084 31.395C79.751 92.743 65.723 100 50 100s-29.636-7.198-38.804-18.466A49.8 49.8 0 0 1 0 50C0 22.386 22.386 0 50 0s50 22.386 50 50"/><path fill="#D1D1DC" d="M88.916 81.395C79.751 92.743 65.723 100 50 100s-29.636-7.198-38.804-18.466c1.146-.665 3.278-1.813 7.021-3.575 6.609-3.11 9.33-3.693 11.273-4.859 1.944-1.166 5.75-7.288 6.139-7.418s.664.033.729-.227-1.328-2.235-2.235-5.312-.94-5.994-1.587-7.16c-.648-1.166-2.01-2.202-2.69-4.858-.68-2.657-.464-6.231.034-6.296.496-.065.54.734.799.626.26-.108-.346-3.39-.8-4.34-.453-.95-1.473-3.758-1.425-7.5s.065-5.036.81-6.43c.745-1.392 3.887-4.632 3.92-4.89.033-.26-3.564.97-3.92.485-.356-.486 7.16-6.803 11.889-8.033 4.73-1.231 9.33-1.685 14.966.259s6.251 4.244 6.446 4.794.097.518.713.583c.615.065 5.83.745 7.807 3.531 1.976 2.786 1.922 3.746 1.77 3.811-.15.065-2.03-2.31-2.504-2.051-.476.26 1.48-.53 1.673 6.274.194 6.802-2.527 12.957-2.106 13.41.421.454.94-.744 1.102-.55s.518 3.53-.26 6.122c-.777 2.592-1.748 3.855-2.429 4.212s-1.102 4.923-1.425 6.51c-.324 1.588-2.786 6.674-2.527 6.9.26.227.94-.486 3.11 3.046 2.17 3.53 3.887 4.729 4.989 5.086 1.101.356 12.385 5.68 13.81 6.349.853.4 1.87.894 2.63 1.362z"/></svg>
